papirus/16x16/apps/gpodder.svg

<?xml version="1.0" encoding="UTF-8" standalone="no"?>
<!-- Created with Inkscape (http://www.inkscape.org/) -->

<svg
   xmlns:dc="http://purl.org/dc/elements/1.1/"
   xmlns:cc="http://creativecommons.org/ns#"
   xmlns:rdf="http://www.w3.org/1999/02/22-rdf-syntax-ns#"
   xmlns:svg="http://www.w3.org/2000/svg"
   xmlns="http://www.w3.org/2000/svg"
   xmlns:sodipodi="http://sodipodi.sourceforge.net/DTD/sodipodi-0.dtd"
   xmlns:inkscape="http://www.inkscape.org/namespaces/inkscape"
   version="1.0"
   width="16"
   height="16"
   id="svg4380"
   inkscape:version="0.91 r13725"
   sodipodi:docname="gpodder.svg">
  <sodipodi:namedview
     pagecolor="#7f7f7f"
     bordercolor="#666666"
     borderopacity="1"
     objecttolerance="10"
     gridtolerance="10"
     guidetolerance="10"
     inkscape:pageopacity="0"
     inkscape:pageshadow="2"
     inkscape:window-width="1600"
     inkscape:window-height="847"
     id="namedview274"
     showgrid="false"
     inkscape:zoom="1"
     inkscape:cx="2.0729927"
     inkscape:cy="9.4911307"
     inkscape:window-x="0"
     inkscape:window-y="0"
     inkscape:window-maximized="1"
     inkscape:current-layer="svg4380" />
  <metadata
     id="metadata281">
    <rdf:RDF>
      <cc:Work
         rdf:about="">
        <dc:format>image/svg+xml</dc:format>
        <dc:type
           rdf:resource="http://purl.org/dc/dcmitype/StillImage" />
        <dc:title></dc:title>
      </cc:Work>
    </rdf:RDF>
  </metadata>
  <defs
     id="defs4382" />
  <path
     inkscape:connector-curvature="0"
     style="color:#000000;display:inline;overflow:visible;visibility:visible;fill:#7f5785;fill-opacity:1;fill-rule:nonzero;stroke:none;stroke-width:0.99999994;stroke-linecap:butt;stroke-linejoin:miter;stroke-miterlimit:4;stroke-dasharray:none;stroke-dashoffset:0;stroke-opacity:1;marker:none;enable-background:accumulate"
     d="M 7.4780068,1.000755 C 7.1981833,1.0117572 6.9523176,1.1635313 6.7592867,1.3884055 6.5662558,1.6132795 6.4137763,1.9127743 6.2853471,2.2642946 6.0284905,2.9673335 5.870579,3.8840691 5.7831362,4.8323819 5.6956927,5.7806943 5.6807333,6.7585833 5.7206384,7.5761112 c 0.039903,0.8175277 0.1178372,1.4538011 0.282727,1.8090347 0.144216,0.3106969 0.3117646,0.6658221 0.3839126,0.9865361 0.072147,0.320714 0.057057,0.576309 -0.1279709,0.783038 -0.1850274,0.206728 -0.5932224,0.392661 -1.3779197,0.435623 -0.7846975,0.04297 -1.9313667,-0.05402 -3.5571456,-0.36289 -0.26186,-0.04974 -0.48032132,-0.0542 -0.67035931,0.01011 -0.19003793,0.06425 -0.33880985,0.207165 -0.42929781,0.387652 -0.18097604,0.36097 -0.1972445,0.857508 -0.223949137,1.543636 -0.008634283,0.221861 0.071177327,0.43336 0.211300847,0.606624 0.14012352,0.173264 0.33631739,0.315296 0.57958927,0.439492 0.48654384,0.248391 1.16790974,0.427456 2.01405414,0.554781 1.6922892,0.25465 4.0418686,0.294784 6.7110338,0.136954 l 0.00223,-7.58e-4 0.00297,0 c 0.9823434,-0.08258 2.5362984,-0.140514 3.8763284,-0.488239 0.670016,-0.173863 1.289561,-0.418785 1.762577,-0.793097 0.473015,-0.374312 0.796943,-0.893988 0.828835,-1.556792 0.02965,-0.616216 -0.0015,-1.028926 -0.122763,-1.325439 -0.121237,-0.296514 -0.38105,-0.454688 -0.648039,-0.460384 -0.533978,-0.01138 -1.163164,0.345207 -1.97983,0.540854 -0.937158,0.224514 -1.598329,0.297128 -2.048278,0.262302 -0.44995,-0.03483 -0.674872,-0.164803 -0.813955,-0.347415 C 10.237606,10.555117 10.175109,10.284985 10.146044,9.9415381 10.116981,9.5980402 10.12037,9.1913626 10.076106,8.7630609 9.991236,7.941924 9.8310588,6.0197481 9.4682524,4.3031346 9.2868495,3.4448274 9.0563175,2.6372274 8.7473003,2.0298468 8.5927916,1.7261563 8.4187979,1.4707453 8.2101196,1.2862699 8.0014418,1.1017946 7.7502297,0.99005132 7.4780068,1.000755 Z"
     id="path4402" />
  <path
     inkscape:connector-curvature="0"
     style="color:#000000;display:inline;overflow:visible;visibility:visible;fill:#4d4d4d;fill-opacity:1;fill-rule:nonzero;stroke:none;stroke-width:1;marker:none;enable-background:accumulate"
     d="M 7.4960978,0.80858804 C 7.3304623,0.81126204 7.1628046,0.82201894 6.9945348,0.84061944 4.3571805,1.1321521 2.4360499,3.3076964 2.617188,5.7367164 L 2,5.8054667 2.3531251,9 4.4117205,8.7726559 4.058595,5.5773409 3.2960945,5.6617164 C 3.154776,3.5802774 4.8045583,1.7218944 7.0664103,1.4718697 9.3267491,1.2220122 11.351823,2.6714839 11.6711,4.731247 l -0.671094,0.074219 0.353125,3.1945333 1.987502,-0.2195315 -0.353126,-3.1945333 -0.638281,0.070313 C 12.012459,2.405399 9.9226962,0.76940449 7.4960978,0.80858804 Z"
     id="path4113" />
  <path
     inkscape:connector-curvature="0"
     d="M 6.9915397,7.5879818 A 1.993389,3.5012973 3.2050325 1 1 3.0084604,7.4120181 1.993389,3.5012973 3.2050325 1 1 6.9915397,7.5879818 Z"
     id="path2892-3"
     style="fill:#ffffff;fill-opacity:1;stroke:none;stroke-width:0.99999976;stroke-miterlimit:4;stroke-dasharray:none;stroke-opacity:1" />
  <path
     inkscape:connector-curvature="0"
     d="m 5.9953216,8.024031 a 0.96379234,1.0355884 44.721779 0 1 -1.9908072,-0.048 0.96379234,1.0355884 44.721779 0 1 1.9908072,0.048 z"
     id="path7470-3"
     style="display:inline;overflow:visible;visibility:visible;fill:#4d4d4d;fill-opacity:1;fill-rule:nonzero;stroke:none;stroke-width:1;marker:none" />
  <path
     inkscape:connector-curvature="0"
     d="M 11.964043,7.315206 A 3.5144828,1.9723969 83.477381 1 1 8.0360567,7.6847942 3.5144828,1.9723969 83.477381 1 1 11.964043,7.315206 Z"
     id="path8367-1"
     style="fill:#ffffff;fill-opacity:1;stroke:none;stroke-width:0.99999994;stroke-miterlimit:4;stroke-dasharray:none;stroke-opacity:1" />
  <path
     inkscape:connector-curvature="0"
     d="M 10.96474,8.0688285 A 0.8964159,1.0938183 45.000001 0 1 9.0348287,7.9333415 0.8964159,1.0938183 45.000001 1 1 10.96474,8.0688285 Z"
     id="path8369-4"
     style="display:inline;overflow:visible;visibility:visible;fill:#4d4d4d;fill-opacity:1;fill-rule:nonzero;stroke:none;stroke-width:1;marker:none" />
</svg>

<?xml version="1.0" encoding="UTF-8" standalone="no"?>
<svg id="svg4380" xmlns:rdf="http://www.w3.org/1999/02/22-rdf-syntax-ns#" xmlns="http://www.w3.org/2000/svg" height="16" width="16" version="1.0" xmlns:cc="http://creativecommons.org/ns#" xmlns:dc="http://purl.org/dc/elements/1.1/">
 <metadata id="metadata281">
  <rdf:RDF>
   <cc:Work rdf:about="">
    <dc:format>image/svg+xml</dc:format>
    <dc:type rdf:resource="http://purl.org/dc/dcmitype/StillImage"/>
    <dc:title/>
   </cc:Work>
  </rdf:RDF>
 </metadata>
 <path id="path4402" style="color:#000000" d="m7.478 1.0008c-0.2798 0.011-0.5257 0.1627-0.7187 0.3876s-0.3455 0.5244-0.474 0.8759c-0.2568 0.703-0.4147 1.6198-0.5022 2.5681-0.0874 0.9483-0.1024 1.9262-0.0625 2.7437 0.039903 0.81753 0.11784 1.4538 0.28273 1.809 0.14422 0.3107 0.31176 0.66582 0.38391 0.98654 0.072147 0.32071 0.057057 0.57631-0.12797 0.78304s-0.59322 0.39266-1.3779 0.43562c-0.7847 0.04297-1.9314-0.05402-3.5571-0.36289-0.26186-0.04974-0.48032-0.0542-0.67036 0.01011-0.19004 0.06425-0.33881 0.20716-0.4293 0.38765-0.18098 0.36097-0.19724 0.85751-0.22395 1.5436-0.0086343 0.22186 0.071177 0.43336 0.2113 0.60662s0.33632 0.3153 0.57959 0.43949c0.48654 0.24839 1.1679 0.42746 2.0141 0.55478 1.6923 0.25465 4.0419 0.29478 6.711 0.13695l0.00223-0.000758h0.00297c0.98234-0.08258 2.5363-0.14051 3.8763-0.48824 0.67002-0.17386 1.2896-0.41878 1.7626-0.7931 0.47302-0.37431 0.79694-0.89399 0.82884-1.5568 0.02965-0.61622-0.0015-1.0289-0.12276-1.3254-0.12124-0.29651-0.38105-0.45469-0.64804-0.46038-0.53398-0.01138-1.1632 0.34521-1.9798 0.54085-0.93716 0.22451-1.5983 0.29713-2.0483 0.2623-0.44995-0.03483-0.67487-0.1648-0.81396-0.34742-0.139-0.182-0.202-0.452-0.231-0.7955s-0.026-0.7501-0.07-1.1784c-0.0848-0.8212-0.2449-2.7434-0.6077-4.46-0.1815-0.8583-0.412-1.6659-0.721-2.2733-0.1545-0.3036-0.3285-0.5591-0.5372-0.7435-0.2087-0.1845-0.4599-0.29625-0.7321-0.2855z" fill="#7f5785"/>
 <path id="path4113" style="color:#000000" d="m7.4961 0.80859c-0.1656 0.00267-0.3333 0.01343-0.5016 0.03203-2.6373 0.29158-4.5585 2.4671-4.3773 4.8961l-0.6172 0.0688 0.3531 3.1945 2.0586-0.2273-0.3531-3.1954-0.7625 0.0844c-0.1413-2.0814 1.5085-3.9398 3.7703-4.1898 2.2603-0.2499 4.2856 1.1996 4.6046 3.2593l-0.67109 0.074219 0.35312 3.1945 1.9875-0.21953-0.35313-3.1945-0.63828 0.070313c-0.337-2.2508-2.4263-3.8868-4.8529-3.8476z" fill="#4d4d4d"/>
 <path id="path2892-3" fill="#fff" d="m6.9915 7.588a1.9934 3.5013 3.205 1 1 -3.983 -0.176 1.9934 3.5013 3.205 1 1 3.983 0.176z"/>
 <path id="path7470-3" d="m5.9953 8.024a0.96379 1.0356 44.722 0 1 -1.9908 -0.048 0.96379 1.0356 44.722 0 1 1.9908 0.048z" fill="#4d4d4d"/>
 <path id="path8367-1" fill="#fff" d="m11.964 7.3152a3.5145 1.9724 83.477 1 1 -3.9279 0.3696 3.5145 1.9724 83.477 1 1 3.9279 -0.3696z"/>
 <path id="path8369-4" d="m10.965 8.0688a0.89642 1.0938 45 0 1 -1.9302 -0.1355 0.89642 1.0938 45 1 1 1.9302 0.1355z" fill="#4d4d4d"/>
</svg>
